static/images/avain.svg

<svg height="512" viewBox="0 0 512 512" width="512" xmlns="http://www.w3.org/2000/svg"><g fill="none" fill-rule="evenodd"><path d="m.5.5h511v511h-511z" fill="#f50" stroke="#979797"/><path d="m416 206.000625c0 60.75125-49.24875 109.999375-110 109.999375-7.0125 0-13.86875-.66375-20.516875-1.918125l-15.0075 16.88375c-2.846519 3.202358-6.926653 5.034529-11.21125 5.034375h-23.264375v25c0 8.284375-6.715625 15-15 15h-25v25c0 8.284375-6.715625 15-15 15h-70c-8.284375 0-15-6.715625-15-15v-48.786875c0-3.978125 1.580625-7.79375 4.393125-10.606875l101.12625-101.12625c-3.576875-10.84625-5.519375-22.435625-5.519375-34.48 0-60.75125 49.248125-109.999375 109.999375-110 60.930625-.000625 110.000625 49.069375 110.000625 110.000625zm-110-30.000625c0 16.56875 13.43125 30 30 30s30-13.43125 30-30-13.43125-30-30-30-30 13.43125-30 30z" fill="#fff" fill-rule="nonzero"/></g></svg>

<?xml version="1.0" encoding="UTF-8"?>
<svg width="512px" height="512px" viewBox="0 0 512 512" version="1.1" xmlns="http://www.w3.org/2000/svg" xmlns:xlink="http://www.w3.org/1999/xlink">
    <g id="Page-1" stroke="none" stroke-width="1" fill="none" fill-rule="evenodd">
        <rect id="Rectangle" stroke="#979797" fill="#FF5500" x="0.5" y="0.5" width="511" height="511"></rect>
        <path d="M416,206.000625 C416,266.751875 366.75125,316 306,316 C298.9875,316 292.13125,315.33625 285.483125,314.081875 L270.475625,330.965625 C267.629106,334.167983 263.548972,336.000154 259.264375,336 L236,336 L236,361 C236,369.284375 229.284375,376 221,376 L196,376 L196,401 C196,409.284375 189.284375,416 181,416 L111,416 C102.715625,416 96,409.284375 96,401 L96,352.213125 C96,348.235 97.580625,344.419375 100.393125,341.60625 L201.519375,240.48 C197.9425,229.63375 196,218.044375 196,206 C196,145.24875 245.248125,96.000625 305.999375,96 C366.93,95.999375 416,145.069375 416,206.000625 Z M306,176 C306,192.56875 319.43125,206 336,206 C352.56875,206 366,192.56875 366,176 C366,159.43125 352.56875,146 336,146 C319.43125,146 306,159.43125 306,176 Z" id="Shape" fill="#FFFFFF" fill-rule="nonzero"></path>
    </g>
</svg>
